public/logos/QS.svg

<?xml version="1.0" encoding="UTF-8"?>
<svg xmlns="http://www.w3.org/2000/svg" xmlns:xlink="http://www.w3.org/1999/xlink" width="176pt" height="25.45pt" viewBox="0 0 176 25.45" version="1.1">
<defs>
<clipPath id="clip1">
  <path d="M 119 7 L 139 7 L 139 25.449219 L 119 25.449219 Z M 119 7 "/>
</clipPath>
</defs>
<g id="surface1">
<path style=" stroke:none;fill-rule:nonzero;fill:rgb(94.476318%,50.944519%,7.778931%);fill-opacity:1;" d="M 156.480469 2.105469 C 157.738281 1.933594 160.9375 1.484375 162.0625 1.230469 C 163.191406 0.980469 169.441406 0.0625 172.679688 0.0078125 C 175.910156 -0.0507812 175.71875 0.164062 175.8125 0.757812 C 175.910156 1.351562 176.191406 1.558594 175.789062 2.117188 C 175.382812 2.679688 174.691406 2.914062 173.722656 3.316406 C 171.933594 4.050781 164.035156 6.132812 162.972656 6.664062 C 164.605469 6.585938 166.988281 6.132812 169.34375 6.0625 C 170.910156 6.019531 171.136719 6.367188 171.265625 7.058594 C 171.390625 7.757812 171.480469 8.132812 170.417969 8.5625 C 169.359375 8.992188 168.101562 9.441406 165.597656 10.167969 C 162.148438 11.164062 160.050781 11.667969 157.414062 12.765625 C 158.863281 12.894531 161.214844 12.683594 163.097656 12.765625 C 165.925781 12.886719 166.082031 13.195312 166.152344 14.03125 C 166.21875 14.867188 166.285156 15.109375 165.125 15.640625 C 163.964844 16.171875 161.863281 16.707031 160.675781 16.957031 C 159.480469 17.210938 155.046875 18.160156 154.1875 18.386719 C 153.433594 18.582031 152.773438 19.472656 151.582031 19.878906 C 150.257812 20.328125 149.679688 20.148438 149.257812 19.195312 C 148.945312 18.503906 149.8125 17.867188 150.914062 17.546875 C 152.007812 17.226562 155.238281 16.507812 156.617188 16.152344 C 157.996094 15.792969 160.738281 15.03125 161.660156 14.671875 C 160.445312 14.683594 157.410156 14.734375 155.152344 14.78125 C 153.796875 14.808594 153.28125 14.742188 153.058594 13.734375 C 152.832031 12.726562 153.269531 12.371094 154.492188 11.980469 C 155.714844 11.589844 157.554688 10.75 158.746094 10.355469 C 159.9375 9.964844 163.234375 8.789062 164.175781 8.570312 C 161.945312 8.519531 156.882812 9.636719 155.578125 9.917969 C 154.574219 10.136719 154.445312 9.78125 154.0625 9.078125 C 153.675781 8.378906 154.171875 7.910156 154.785156 7.765625 C 155.535156 7.585938 157.050781 6.847656 159.105469 6.027344 C 160.773438 5.363281 163.132812 4.664062 164.871094 4.074219 C 166.523438 3.511719 169.324219 2.5625 170.222656 2.183594 C 169.5 2.179688 166.183594 2.667969 164.019531 2.960938 C 161.855469 3.257812 158.144531 4.015625 157.585938 4.226562 C 157.019531 4.441406 156.367188 4.363281 155.984375 3.503906 C 155.609375 2.652344 155.945312 2.179688 156.480469 2.105469 "/>
<path style=" stroke:none;fill-rule:nonzero;fill:rgb(14.982605%,26.152039%,53.907776%);fill-opacity:1;" d="M 0 18.601562 L 3.003906 15.003906 C 3.539062 15.585938 4.085938 16.035156 4.652344 16.355469 C 5.21875 16.671875 5.746094 16.832031 6.234375 16.832031 C 6.441406 16.832031 6.613281 16.785156 6.769531 16.695312 C 6.917969 16.597656 7.003906 16.476562 7.03125 16.328125 C 7.074219 16.097656 6.820312 15.839844 6.265625 15.550781 L 6.195312 15.515625 L 5.28125 15.03125 C 4.566406 14.644531 4.066406 14.195312 3.785156 13.691406 C 3.5 13.183594 3.421875 12.589844 3.546875 11.914062 C 3.78125 10.65625 4.496094 9.628906 5.699219 8.816406 C 6.902344 8.011719 8.335938 7.609375 10 7.613281 C 10.875 7.613281 11.714844 7.734375 12.523438 7.972656 C 13.335938 8.210938 14.140625 8.582031 14.945312 9.085938 L 12.230469 12.367188 C 11.855469 11.980469 11.480469 11.683594 11.105469 11.476562 C 10.734375 11.269531 10.375 11.164062 10.027344 11.164062 C 9.8125 11.164062 9.625 11.214844 9.472656 11.316406 C 9.316406 11.421875 9.222656 11.542969 9.199219 11.695312 C 9.164062 11.882812 9.378906 12.085938 9.84375 12.292969 C 9.976562 12.359375 10.078125 12.40625 10.148438 12.441406 L 10.882812 12.777344 C 11.632812 13.117188 12.152344 13.546875 12.441406 14.070312 C 12.726562 14.59375 12.800781 15.246094 12.65625 16.023438 C 12.398438 17.417969 11.648438 18.535156 10.398438 19.382812 C 9.148438 20.234375 7.625 20.65625 5.820312 20.65625 C 4.867188 20.65625 3.902344 20.484375 2.933594 20.144531 C 1.960938 19.800781 0.984375 19.285156 0 18.601562 "/>
<path style=" stroke:none;fill-rule:nonzero;fill:rgb(14.982605%,26.152039%,53.907776%);fill-opacity:1;" d="M 11.796875 20.199219 L 16.519531 8.003906 L 22.378906 8.007812 L 21.671875 9.761719 C 22.578125 9.019531 23.421875 8.46875 24.203125 8.128906 C 24.980469 7.785156 25.765625 7.617188 26.550781 7.617188 C 27.359375 7.617188 28.011719 7.816406 28.496094 8.214844 C 28.980469 8.613281 29.3125 9.21875 29.484375 10.039062 C 30.25 9.230469 31.078125 8.632812 31.96875 8.226562 C 32.863281 7.820312 33.804688 7.617188 34.785156 7.617188 C 35.980469 7.621094 36.875 7.957031 37.472656 8.628906 C 38.070312 9.300781 38.269531 10.199219 38.0625 11.3125 C 38.007812 11.609375 37.921875 11.949219 37.808594 12.328125 C 37.699219 12.707031 37.558594 13.117188 37.390625 13.566406 L 34.824219 20.207031 L 28.535156 20.203125 L 30.96875 14.09375 C 31.039062 13.914062 31.109375 13.726562 31.164062 13.53125 C 31.226562 13.332031 31.269531 13.125 31.308594 12.914062 C 31.351562 12.679688 31.320312 12.492188 31.21875 12.363281 C 31.117188 12.226562 30.953125 12.160156 30.71875 12.160156 C 30.28125 12.160156 29.90625 12.34375 29.585938 12.714844 C 29.269531 13.082031 28.914062 13.773438 28.53125 14.789062 L 26.457031 20.203125 L 20.132812 20.199219 L 22.578125 14.089844 C 22.660156 13.882812 22.730469 13.683594 22.785156 13.503906 C 22.839844 13.320312 22.878906 13.15625 22.90625 13.007812 C 22.957031 12.734375 22.929688 12.519531 22.824219 12.375 C 22.71875 12.230469 22.546875 12.15625 22.304688 12.15625 C 21.871094 12.15625 21.492188 12.34375 21.175781 12.714844 C 20.855469 13.078125 20.503906 13.769531 20.121094 14.785156 L 18.046875 20.199219 L 11.796875 20.199219 "/>
<path style=" stroke:none;fill-rule:nonzero;fill:rgb(14.982605%,26.152039%,53.907776%);fill-opacity:1;" d="M 49.425781 8.015625 L 55.503906 8.015625 L 50.804688 20.210938 L 44.925781 20.210938 L 45.699219 18.570312 C 45.019531 19.269531 44.316406 19.789062 43.601562 20.132812 C 42.882812 20.476562 42.125 20.644531 41.320312 20.644531 C 39.90625 20.644531 38.832031 20.140625 38.097656 19.132812 C 37.367188 18.125 37.148438 16.824219 37.441406 15.226562 C 37.609375 14.308594 37.9375 13.402344 38.421875 12.511719 C 38.90625 11.621094 39.507812 10.808594 40.230469 10.085938 C 41.035156 9.277344 41.886719 8.664062 42.777344 8.246094 C 43.671875 7.832031 44.585938 7.621094 45.511719 7.621094 C 46.351562 7.625 47.042969 7.800781 47.59375 8.15625 C 48.140625 8.511719 48.566406 9.050781 48.871094 9.769531 Z M 45.90625 12.578125 C 45.402344 12.578125 44.960938 12.757812 44.566406 13.121094 C 44.171875 13.488281 43.925781 13.960938 43.820312 14.53125 C 43.738281 14.972656 43.792969 15.3125 43.988281 15.546875 C 44.175781 15.785156 44.488281 15.902344 44.925781 15.902344 C 45.46875 15.902344 45.945312 15.730469 46.351562 15.378906 C 46.757812 15.027344 47.011719 14.578125 47.113281 14.027344 C 47.195312 13.578125 47.128906 13.222656 46.90625 12.96875 C 46.6875 12.707031 46.351562 12.578125 45.90625 12.578125 "/>
<path style=" stroke:none;fill-rule:nonzero;fill:rgb(14.982605%,26.152039%,53.907776%);fill-opacity:1;" d="M 51.902344 20.210938 L 56.621094 8.019531 L 62.332031 8.019531 L 61.578125 9.679688 C 62.15625 8.988281 62.777344 8.476562 63.4375 8.136719 C 64.09375 7.796875 64.8125 7.628906 65.578125 7.628906 C 65.765625 7.632812 65.980469 7.644531 66.214844 7.679688 C 66.453125 7.710938 66.738281 7.757812 67.066406 7.820312 L 65.152344 12.800781 C 64.742188 12.664062 64.367188 12.5625 64.03125 12.488281 C 63.695312 12.421875 63.386719 12.382812 63.101562 12.382812 C 62.375 12.382812 61.800781 12.550781 61.382812 12.894531 C 60.960938 13.238281 60.578125 13.863281 60.230469 14.777344 L 58.152344 20.210938 L 51.902344 20.210938 "/>
<path style=" stroke:none;fill-rule:nonzero;fill:rgb(14.982605%,26.152039%,53.907776%);fill-opacity:1;" d="M 66.28125 12.410156 L 63.292969 20.214844 L 69.519531 20.21875 L 72.519531 12.410156 L 74.441406 12.414062 L 76.144531 8.023438 L 74.226562 8.023438 L 75.53125 4.613281 L 69.292969 4.613281 L 67.988281 8.023438 L 66.28125 12.410156 "/>
<path style=" stroke:none;fill-rule:nonzero;fill:rgb(14.982605%,26.152039%,53.907776%);fill-opacity:1;" d="M 76.46875 20.21875 L 76.464844 8.023438 L 82.417969 8.027344 L 82.257812 10.703125 C 82.246094 11.050781 82.21875 11.421875 82.171875 11.808594 C 82.121094 12.207031 82.039062 12.789062 81.921875 13.570312 L 85.695312 8.027344 L 89.78125 8.027344 L 89.609375 11.097656 C 89.582031 11.503906 89.542969 11.867188 89.507812 12.175781 C 89.472656 12.484375 89.433594 12.78125 89.382812 13.054688 C 89.347656 13.242188 89.316406 13.382812 89.292969 13.476562 C 89.273438 13.574219 89.253906 13.652344 89.230469 13.726562 L 93.136719 8.03125 L 99.511719 8.03125 L 90.238281 20.222656 L 85.128906 20.222656 L 85.667969 14.160156 C 85.308594 14.84375 84.761719 15.703125 84.027344 16.730469 C 83.925781 16.871094 83.847656 16.980469 83.789062 17.0625 L 81.53125 20.222656 L 76.46875 20.21875 "/>
<path style=" stroke:none;fill-rule:nonzero;fill:rgb(14.982605%,26.152039%,53.907776%);fill-opacity:1;" d="M 95.222656 20.226562 L 99.902344 8.03125 L 106.148438 8.035156 L 101.457031 20.226562 L 95.222656 20.226562 "/>
<path style=" stroke:none;fill-rule:nonzero;fill:rgb(14.982605%,26.152039%,53.907776%);fill-opacity:1;" d="M 102.757812 20.230469 L 107.476562 8.035156 L 113.34375 8.035156 L 112.636719 9.792969 C 113.53125 9.078125 114.40625 8.539062 115.242188 8.183594 C 116.078125 7.824219 116.894531 7.648438 117.691406 7.648438 C 118.835938 7.648438 119.691406 7.984375 120.265625 8.648438 C 120.835938 9.3125 121.023438 10.195312 120.820312 11.292969 C 120.765625 11.605469 120.679688 11.957031 120.5625 12.34375 C 120.453125 12.730469 120.3125 13.144531 120.140625 13.59375 L 117.601562 20.234375 L 111.3125 20.230469 L 113.675781 14.09375 C 113.753906 13.886719 113.824219 13.683594 113.886719 13.484375 C 113.941406 13.285156 113.984375 13.09375 114.019531 12.90625 C 114.0625 12.6875 114.019531 12.507812 113.902344 12.367188 C 113.78125 12.234375 113.605469 12.164062 113.375 12.164062 C 112.917969 12.164062 112.507812 12.359375 112.160156 12.75 C 111.808594 13.144531 111.449219 13.828125 111.085938 14.792969 L 109.007812 20.230469 L 102.757812 20.230469 "/>
<g clip-path="url(#clip1)" clip-rule="nonzero">
<path style=" stroke:none;fill-rule:nonzero;fill:rgb(14.982605%,26.152039%,53.907776%);fill-opacity:1;" d="M 132.65625 8.042969 L 138.734375 8.046875 L 134.453125 19.082031 C 133.640625 21.171875 132.421875 22.757812 130.796875 23.835938 C 129.171875 24.910156 127.203125 25.453125 124.890625 25.449219 C 123.863281 25.449219 122.871094 25.332031 121.914062 25.101562 C 120.949219 24.871094 119.984375 24.515625 119.003906 24.03125 L 121.75 20.527344 C 122.265625 20.882812 122.777344 21.144531 123.289062 21.3125 C 123.800781 21.484375 124.351562 21.570312 124.9375 21.570312 C 125.742188 21.570312 126.460938 21.351562 127.09375 20.914062 C 127.730469 20.476562 128.242188 19.851562 128.632812 19.03125 L 129.144531 17.996094 C 128.457031 18.664062 127.742188 19.171875 127.007812 19.511719 C 126.269531 19.855469 125.515625 20.023438 124.738281 20.023438 C 123.25 20.023438 122.140625 19.574219 121.40625 18.675781 C 120.671875 17.777344 120.4375 16.601562 120.707031 15.136719 C 120.863281 14.277344 121.1875 13.402344 121.667969 12.523438 C 122.148438 11.652344 122.746094 10.855469 123.460938 10.136719 C 124.253906 9.335938 125.101562 8.726562 125.988281 8.320312 C 126.882812 7.90625 127.796875 7.699219 128.738281 7.699219 C 129.570312 7.699219 130.265625 7.871094 130.816406 8.222656 C 131.363281 8.574219 131.792969 9.109375 132.097656 9.828125 Z M 129.214844 12.46875 C 128.703125 12.46875 128.25 12.644531 127.855469 13.003906 C 127.464844 13.359375 127.214844 13.8125 127.113281 14.363281 C 127.03125 14.796875 127.089844 15.132812 127.28125 15.363281 C 127.472656 15.601562 127.785156 15.71875 128.21875 15.71875 C 128.765625 15.71875 129.246094 15.550781 129.65625 15.210938 C 130.070312 14.867188 130.328125 14.421875 130.429688 13.878906 C 130.503906 13.457031 130.433594 13.113281 130.214844 12.859375 C 129.992188 12.597656 129.660156 12.46875 129.214844 12.46875 "/>
</g>
<path style=" stroke:none;fill-rule:nonzero;fill:rgb(14.982605%,26.152039%,53.907776%);fill-opacity:1;" d="M 135.253906 18.644531 L 138.257812 15.050781 C 138.792969 15.632812 139.339844 16.082031 139.90625 16.398438 C 140.472656 16.71875 140.996094 16.878906 141.488281 16.878906 C 141.691406 16.878906 141.867188 16.832031 142.019531 16.738281 C 142.167969 16.640625 142.257812 16.519531 142.285156 16.371094 C 142.328125 16.144531 142.074219 15.886719 141.519531 15.59375 L 141.445312 15.558594 L 140.535156 15.078125 C 139.820312 14.691406 139.320312 14.242188 139.039062 13.734375 C 138.757812 13.226562 138.675781 12.636719 138.800781 11.960938 C 139.03125 10.703125 139.75 9.671875 140.953125 8.863281 C 142.15625 8.058594 143.589844 7.65625 145.253906 7.65625 C 146.128906 7.65625 146.96875 7.777344 147.777344 8.015625 C 148.585938 8.257812 149.394531 8.628906 150.195312 9.132812 L 147.480469 12.414062 C 147.105469 12.027344 146.734375 11.726562 146.359375 11.523438 C 145.988281 11.3125 145.628906 11.207031 145.277344 11.207031 C 145.0625 11.207031 144.878906 11.261719 144.726562 11.359375 C 144.570312 11.464844 144.480469 11.589844 144.449219 11.738281 C 144.414062 11.929688 144.632812 12.128906 145.097656 12.339844 C 145.230469 12.402344 145.332031 12.453125 145.398438 12.484375 L 146.136719 12.824219 C 146.886719 13.160156 147.40625 13.59375 147.691406 14.117188 C 147.980469 14.640625 148.054688 15.292969 147.910156 16.070312 C 147.652344 17.460938 146.898438 18.582031 145.652344 19.429688 C 144.402344 20.277344 142.878906 20.703125 141.074219 20.703125 C 140.121094 20.699219 139.152344 20.53125 138.1875 20.1875 C 137.214844 19.847656 136.234375 19.332031 135.253906 18.644531 "/>
</g>
</svg>

<svg xmlns="http://www.w3.org/2000/svg" width="176pt" height="33.933" viewBox="0 0 176 25.45"><defs><clipPath id="a"><path d="M119 7h20v18.45h-20Zm0 0"/></clipPath></defs><path d="M156.48 2.105c1.258-.171 4.458-.62 5.583-.875C163.19.98 169.44.063 172.68.008c3.23-.059 3.039.156 3.132.75.098.594.38.8-.023 1.36-.406.562-1.098.796-2.066 1.198-1.79.735-9.688 2.817-10.75 3.348 1.632-.078 4.015-.531 6.37-.601 1.567-.043 1.794.304 1.923.996.125.699.214 1.074-.848 1.503-1.059.43-2.316.88-4.82 1.606-3.45.996-5.547 1.5-8.184 2.598 1.45.129 3.8-.082 5.684 0 2.828.12 2.984.43 3.054 1.265.067.836.133 1.078-1.027 1.61-1.16.53-3.262 1.066-4.45 1.316-1.195.254-5.628 1.203-6.488 1.43-.753.195-1.414 1.086-2.605 1.492-1.324.45-1.902.27-2.324-.684-.313-.691.554-1.328 1.656-1.648 1.094-.32 4.324-1.04 5.703-1.395 1.38-.359 4.121-1.12 5.043-1.48-1.215.012-4.25.062-6.508.11-1.355.027-1.87-.04-2.093-1.048-.227-1.007.21-1.363 1.433-1.754 1.223-.39 3.063-1.23 4.254-1.625 1.191-.39 4.488-1.566 5.43-1.785-2.23-.05-7.293 1.067-8.598 1.348-1.004.219-1.133-.137-1.516-.84-.386-.7.11-1.168.723-1.312.75-.18 2.266-.918 4.32-1.739 1.668-.664 4.028-1.363 5.766-1.953 1.652-.562 4.453-1.511 5.352-1.89-.723-.004-4.04.484-6.203.777-2.165.297-5.875 1.055-6.434 1.266-.566.214-1.219.136-1.602-.723-.375-.852-.039-1.324.496-1.399" style="stroke:none;fill-rule:nonzero;fill:#f18214;fill-opacity:1"/><path d="m0 18.602 3.004-3.598q.8.872 1.648 1.351.85.476 1.582.477c.207 0 .38-.047.536-.137a.55.55 0 0 0 .261-.367q.066-.344-.765-.777l-.07-.035-.915-.485c-.715-.386-1.215-.836-1.496-1.34q-.427-.762-.238-1.777c.234-1.258.95-2.285 2.152-3.098Q7.504 7.61 10 7.613q1.312 0 2.523.36a9.7 9.7 0 0 1 2.422 1.113l-2.715 3.281a4.9 4.9 0 0 0-1.125-.89q-.556-.312-1.078-.313a1 1 0 0 0-.554.152c-.157.106-.25.227-.274.38-.035.187.18.39.645.597q.2.097.304.148l.735.336q1.125.51 1.558 1.293.43.787.215 1.953c-.258 1.395-1.008 2.512-2.258 3.36-1.25.851-2.773 1.273-4.578 1.273a8.7 8.7 0 0 1-2.886-.511Q1.475 19.628 0 18.602M11.797 20.2 16.52 8.003l5.859.004-.707 1.754c.906-.742 1.75-1.293 2.531-1.633a5.8 5.8 0 0 1 2.348-.512c.808 0 1.46.2 1.945.598.484.398.817 1.004.988 1.824.766-.809 1.594-1.406 2.485-1.812a6.74 6.74 0 0 1 2.816-.61q1.792.005 2.688 1.012c.597.672.797 1.57.59 2.684a10 10 0 0 1-.254 1.015q-.165.567-.418 1.238l-2.567 6.641-6.289-.004 2.434-6.11a6 6 0 0 0 .34-1.179c.043-.234.011-.422-.09-.55q-.151-.205-.5-.204-.655 0-1.133.555c-.316.367-.672 1.058-1.055 2.074l-2.074 5.414-6.324-.004 2.445-6.11a8 8 0 0 0 .207-.585q.082-.275.121-.496c.051-.274.024-.488-.082-.633q-.157-.218-.52-.219c-.433 0-.812.188-1.128.559q-.48.546-1.055 2.07L18.047 20.2zM49.426 8.016h6.078l-4.7 12.195h-5.878l.773-1.64c-.68.699-1.383 1.218-2.097 1.562a5.2 5.2 0 0 1-2.282.512q-2.121 0-3.222-1.512-1.096-1.511-.657-3.906a9.1 9.1 0 0 1 .98-2.715 10.5 10.5 0 0 1 1.81-2.426c.804-.809 1.656-1.422 2.546-1.84a6.5 6.5 0 0 1 2.735-.625c.84.004 1.531.18 2.082.535q.82.535 1.277 1.614Zm-3.52 4.562c-.504 0-.945.18-1.34.543-.394.367-.64.84-.746 1.41q-.124.663.168 1.016.281.356.938.355a2.1 2.1 0 0 0 1.426-.523q.61-.526.761-1.352c.082-.449.016-.804-.207-1.058-.218-.262-.554-.39-1-.39M51.902 20.21l4.72-12.19h5.71l-.754 1.66c.578-.692 1.2-1.203 1.86-1.543a4.6 4.6 0 0 1 2.777-.457q.358.046.851.14l-1.914 4.98q-.616-.203-1.12-.312a5 5 0 0 0-.93-.105c-.727 0-1.301.168-1.72.512q-.63.513-1.152 1.882l-2.078 5.434zM66.281 12.41l-2.988 7.805 6.227.004 3-7.809 1.921.004 1.704-4.39h-1.918l1.304-3.41h-6.238l-1.305 3.41zM76.469 20.219l-.004-12.196 5.953.004-.16 2.676q-.017.524-.086 1.106c-.05.398-.133.98-.25 1.761l3.773-5.543h4.086l-.172 3.07c-.027.407-.066.77-.101 1.079s-.074.605-.125.879a8 8 0 0 1-.09.422c-.02.097-.04.175-.063.25l3.907-5.696h6.375l-9.274 12.192h-5.11l.54-6.063q-.54 1.028-1.64 2.57l-.239.332-2.258 3.16zM95.223 20.227l4.68-12.196 6.245.004-4.691 12.192zM102.758 20.23l4.719-12.195h5.867l-.707 1.758c.894-.715 1.77-1.254 2.605-1.61q1.254-.537 2.45-.535 1.714.002 2.574 1 .857.998.554 2.645-.081.47-.257 1.05-.165.58-.422 1.25l-2.54 6.641-6.288-.004 2.363-6.136q.117-.31.21-.61.081-.297.134-.578c.043-.219 0-.398-.118-.539q-.181-.201-.527-.203c-.457 0-.867.195-1.215.586q-.527.594-1.074 2.043l-2.078 5.437z" style="stroke:none;fill-rule:nonzero;fill:#264389;fill-opacity:1"/><g clip-path="url(#a)"><path d="m132.656 8.043 6.078.004-4.28 11.035q-1.22 3.136-3.657 4.754c-1.625 1.074-3.594 1.617-5.906 1.613a12.7 12.7 0 0 1-2.977-.347c-.965-.23-1.93-.586-2.91-1.07l2.746-3.505a6 6 0 0 0 1.54.785 5.2 5.2 0 0 0 1.647.258q1.208 0 2.157-.656.953-.654 1.539-1.883l.512-1.035c-.688.668-1.403 1.176-2.137 1.516a5.3 5.3 0 0 1-2.27.511q-2.23 0-3.332-1.347c-.734-.899-.969-2.074-.699-3.54.156-.859.48-1.734.961-2.613a10.7 10.7 0 0 1 1.793-2.386c.793-.801 1.64-1.41 2.527-1.817a6.5 6.5 0 0 1 2.75-.62c.832 0 1.528.171 2.078.523q.823.526 1.282 1.605Zm-3.441 4.426q-.768-.002-1.36.535c-.39.355-.64.809-.742 1.36-.082.433-.023.769.168 1q.287.356.938.355.821.001 1.437-.508.621-.518.774-1.332c.074-.422.004-.766-.215-1.02q-.334-.39-1-.39" style="stroke:none;fill-rule:nonzero;fill:#264389;fill-opacity:1"/></g><path d="m135.254 18.645 3.004-3.594q.8.873 1.648 1.347c.567.32 1.09.48 1.582.48a1 1 0 0 0 .532-.14.56.56 0 0 0 .265-.367q.066-.338-.765-.777l-.075-.035-.91-.48q-1.073-.582-1.496-1.345-.423-.76-.238-1.773.346-1.887 2.152-3.098 1.805-1.206 4.3-1.207 1.313 0 2.524.36a9.9 9.9 0 0 1 2.418 1.117l-2.715 3.281c-.375-.387-.746-.687-1.12-.89q-.557-.317-1.083-.317c-.214 0-.398.055-.55.152a.6.6 0 0 0-.278.38q-.05.285.649.6l.3.145.739.34c.75.336 1.27.77 1.554 1.293q.435.787.22 1.953-.39 2.087-2.259 3.36c-1.25.847-2.773 1.273-4.578 1.273a8.7 8.7 0 0 1-2.887-.515c-.972-.34-1.953-.856-2.933-1.543" style="stroke:none;fill-rule:nonzero;fill:#264389;fill-opacity:1"/></svg>
